X: 7773
T: Come Back Paddy Reilly
R: waltz
M: 3/4
K: Gmajor
d2|d2e2(3dfd|B2A2(3GBG|E2G2E2|D4D2|G2F2G2|e2d2B2|A6-|A4d2|
d2e2(3dfd|B2A2(3GBG|E2G2E2|D4GA|B2d2B2|A2G3A|G6-|G4||
G2|e4e2|e2c3e|e2d3^c|d4B=c|d2B2(3AdA|G2F2G2|A6-|A4d2|
d2e2(3dfd|B2A2(3GBG|E2G2E2|D4GA|B2d2B2|A2G3A|G6-|G4||

